media/img/firefox/set-as-default/landing/browserdefault_freedom_icon.svg

<?xml version="1.0" encoding="UTF-8"?>
<svg width="48px" height="42px" viewBox="0 0 48 42" version="1.1" xmlns="http://www.w3.org/2000/svg" xmlns:xlink="http://www.w3.org/1999/xlink">
    <!-- Generator: Sketch 59.1 (86144) - https://sketch.com -->
    <title>Group 8</title>
    <desc>Created with Sketch.</desc>
    <defs>
        <linearGradient x1="153.432422%" y1="26.4027859%" x2="12.5622585%" y2="52.4421043%" id="linearGradient-1">
            <stop stop-color="#FF624A" offset="0%"></stop>
            <stop stop-color="#FF298A" offset="100%"></stop>
        </linearGradient>
        <linearGradient x1="76.0192938%" y1="21.2939239%" x2="29.9147092%" y2="76.1790457%" id="linearGradient-2">
            <stop stop-color="#FF7139" offset="0%"></stop>
            <stop stop-color="#FF298A" offset="100%"></stop>
        </linearGradient>
        <polygon id="path-3" points="0 0.7587 18.9173 0.7587 18.9173 29 0 29"></polygon>
        <linearGradient x1="72.4351795%" y1="0%" x2="33.683682%" y2="100%" id="linearGradient-5">
            <stop stop-color="#05C8E5" offset="0%"></stop>
            <stop stop-color="#008BFF" offset="100%"></stop>
        </linearGradient>
    </defs>
    <g id="/firefox/whatsnew73" stroke="none" stroke-width="1" fill="none" fill-rule="evenodd">
        <g id="/firefox/set-as-default---landing-copy" transform="translate(-507.000000, -837.000000)">
            <g id="Group-8" transform="translate(507.000000, 837.813843)">
                <path d="M33.8237,28.2607 L21.5077,28.2607 L21.5077,31.3207 L33.8237,31.3207 C34.6697,31.3207 35.3537,30.6357 35.3537,29.7907 C35.3537,28.9457 34.6697,28.2607 33.8237,28.2607" id="Fill-1" fill="url(#linearGradient-1)"></path>
                <path d="M47.4927,32.2412 L45.1067,25.0822 C44.9377,24.5772 44.6587,24.1342 44.3077,23.7632 C44.5617,23.2722 44.7207,22.7222 44.7207,22.1312 L44.7207,3.7342 C44.7207,1.7622 43.1217,0.1642 41.1497,0.1642 L11.5137,0.1642 C9.5417,0.1642 7.9427,1.7622 7.9427,3.7342 L7.9427,10.2992 L11.0037,10.2992 L11.0037,3.7342 C11.0037,3.4522 11.2317,3.2232 11.5137,3.2232 L41.1497,3.2232 C41.4307,3.2232 41.6597,3.4522 41.6597,3.7342 L41.6597,22.1312 C41.6597,22.4132 41.4307,22.6412 41.1497,22.6412 L20.8047,22.6412 L20.8047,25.7012 L41.1497,25.7012 L41.7197,25.7012 C41.9387,25.7012 42.1347,25.8422 42.2037,26.0512 L44.5897,33.2092 C44.6797,33.4762 44.5347,33.7652 44.2667,33.8532 C44.2157,33.8712 44.1607,33.8812 44.1057,33.8812 L20.8047,33.8812 L20.8047,36.9402 L44.1057,36.9402 C44.4897,36.9402 44.8707,36.8792 45.2347,36.7572 C47.1047,36.1342 48.1167,34.1112 47.4927,32.2412" id="Fill-3" fill="url(#linearGradient-2)"></path>
                <g id="Group-7" transform="translate(0.000000, 11.672600)">
                    <mask id="mask-4" fill="white">
                        <use xlink:href="#path-3"></use>
                    </mask>
                    <g id="Clip-6"></g>
                    <path d="M15.8833,26.3997 L3.0343,26.3997 C2.7953,26.3997 2.6013,26.2047 2.6013,25.9657 L2.6013,24.3377 L16.3173,24.3377 L16.3173,25.9657 C16.3173,26.2047 16.1223,26.3997 15.8833,26.3997 L15.8833,26.3997 Z M2.6013,21.7377 L16.3173,21.7377 L16.3173,8.0217 L2.6013,8.0217 L2.6013,21.7377 Z M3.0343,3.3597 L15.8833,3.3597 C16.1223,3.3597 16.3173,3.5537 16.3173,3.7937 L16.3173,5.4207 L2.6013,5.4207 L2.6013,3.7937 C2.6013,3.5537 2.7953,3.3597 3.0343,3.3597 L3.0343,3.3597 Z M15.8833,0.7587 L3.0343,0.7587 C1.3593,0.7587 -0.0007,2.1177 -0.0007,3.7937 L-0.0007,25.9657 C-0.0007,27.6417 1.3593,29.0007 3.0343,29.0007 L15.8833,29.0007 C17.5593,29.0007 18.9173,27.6417 18.9173,25.9657 L18.9173,3.7937 C18.9173,2.1177 17.5593,0.7587 15.8833,0.7587 L15.8833,0.7587 Z" id="Fill-5" fill="url(#linearGradient-5)" mask="url(#mask-4)"></path>
                </g>
            </g>
        </g>
    </g>
</svg>

<svg width="48" height="42" xmlns="http://www.w3.org/2000/svg" xmlns:xlink="http://www.w3.org/1999/xlink"><defs><linearGradient x1="153.432%" y1="26.403%" x2="12.562%" y2="52.442%" id="a"><stop stop-color="#FF624A" offset="0%"/><stop stop-color="#FF298A" offset="100%"/></linearGradient><linearGradient x1="76.019%" y1="21.294%" x2="29.915%" y2="76.179%" id="b"><stop stop-color="#FF7139" offset="0%"/><stop stop-color="#FF298A" offset="100%"/></linearGradient><linearGradient x1="72.435%" y1="0%" x2="33.684%" y2="100%" id="d"><stop stop-color="#05C8E5" offset="0%"/><stop stop-color="#008BFF" offset="100%"/></linearGradient><path id="c" d="M0 .759h18.917V29H0z"/></defs><g fill="none" fill-rule="evenodd"><path d="M33.824 28.26H21.508v3.06h12.316a1.53 1.53 0 100-3.06" fill="url(#a)" transform="translate(0 .814)"/><path d="M47.493 32.241l-2.386-7.159a3.564 3.564 0 00-.8-1.319 3.539 3.539 0 00.414-1.632V3.734A3.57 3.57 0 0041.15.164H11.514a3.57 3.57 0 00-3.571 3.57V10.3h3.06V3.734a.51.51 0 01.51-.51H41.15c.28 0 .51.228.51.51v18.397a.51.51 0 01-.51.51H20.805v3.06H41.72a.51.51 0 01.484.35l2.386 7.158a.507.507 0 01-.323.644.487.487 0 01-.161.028H20.805v3.06h23.3a3.57 3.57 0 003.387-4.699" fill="url(#b)" transform="translate(0 .814)"/><g transform="translate(0 12.486)"><mask id="e" fill="#fff"><use xlink:href="#c"/></mask><path d="M15.883 26.4H3.034a.434.434 0 01-.433-.434v-1.628h13.716v1.628a.435.435 0 01-.434.434zM2.601 21.738h13.716V8.022H2.601v13.716zM3.034 3.36h12.85c.238 0 .433.194.433.434V5.42H2.601V3.794c0-.24.194-.434.433-.434zM15.884.759H3.033A3.036 3.036 0 000 3.794v22.172A3.036 3.036 0 003.034 29h12.85a3.034 3.034 0 003.033-3.035V3.794A3.034 3.034 0 0015.883.759z" fill="url(#d)" mask="url(#e)"/></g></g></svg>
